X:46
T:Scottish - Bateau dor (trad./F. Paris)
C:La Chavanne
M:2/4
L:1/16
K:C
e2e2 e2dc|dcde d2cd|e2de A2Bc|d3c BcBG|\
e2e2 e2dc|dcde d2cd|e2de ABcd|ede^f g4:|
|:cdec A2cA|BcdB G4|c3d edeg|fedc e2de|\
cdec A2cA|BcdB G4|c3d edeg|fede c4:|
